svgs/light/list-timeline.svg

<svg xmlns="http://www.w3.org/2000/svg" viewBox="0 0 512 512"><!--! Font Awesome Pro 6.4.0 by @fontawesome - https://fontawesome.com License - https://fontawesome.com/license (Commercial License) Copyright 2023 Fonticons, Inc. --><path d="M213.3 128H416V64L213.3 64l-32 32 32 32zM190.6 41.4c6-6 14.1-9.4 22.6-9.4H416c17.7 0 32 14.3 32 32v64c0 17.7-14.3 32-32 32H213.3c-8.5 0-16.6-3.4-22.6-9.4l-43.3-43.3c-6.2-6.2-6.2-16.4 0-22.6l43.3-43.3zM64 128a32 32 0 1 1 0-64 32 32 0 1 1 0 64zm0 160a32 32 0 1 1 0-64 32 32 0 1 1 0 64zM32 416a32 32 0 1 1 64 0 32 32 0 1 1 -64 0zm181.3 32H416V384H213.3l-32 32 32 32zm-22.6-86.6c6-6 14.1-9.4 22.6-9.4H416c17.7 0 32 14.3 32 32v64c0 17.7-14.3 32-32 32H213.3c-8.5 0-16.6-3.4-22.6-9.4l-43.3-43.3c-6.2-6.2-6.2-16.4 0-22.6l43.3-43.3zM181.3 256l32 32H480V224l-266.7 0-32 32zm-33.9-11.3l43.3-43.3c6-6 14.1-9.4 22.6-9.4H480c17.7 0 32 14.3 32 32v64c0 17.7-14.3 32-32 32H213.3c-8.5 0-16.6-3.4-22.6-9.4l-43.3-43.3c-6.2-6.2-6.2-16.4 0-22.6z"/></svg>

<svg xmlns="http://www.w3.org/2000/svg" viewBox="0 0 512 512"><!--! Font Awesome Pro 6.3.0 by @fontawesome - https://fontawesome.com License - https://fontawesome.com/license (Commercial License) Copyright 2023 Fonticons, Inc. --><path d="M213.3 32H416C433.7 32 448 46.33 448 64V128C448 145.7 433.7 160 416 160H213.3C204.8 160 196.6 156.6 190.6 150.6L147.3 107.3C141.1 101.1 141.1 90.94 147.3 84.69L190.6 41.37C196.6 35.37 204.8 32 213.3 32V32zM416 128V64H213.3L181.3 96L213.3 128H416zM64 64C81.67 64 96 78.33 96 96C96 113.7 81.67 128 64 128C46.33 128 32 113.7 32 96C32 78.33 46.33 64 64 64zM64 224C81.67 224 96 238.3 96 256C96 273.7 81.67 288 64 288C46.33 288 32 273.7 32 256C32 238.3 46.33 224 64 224zM64 448C46.33 448 32 433.7 32 416C32 398.3 46.33 384 64 384C81.67 384 96 398.3 96 416C96 433.7 81.67 448 64 448zM213.3 352H416C433.7 352 448 366.3 448 384V448C448 465.7 433.7 480 416 480H213.3C204.8 480 196.6 476.6 190.6 470.6L147.3 427.3C141.1 421.1 141.1 410.9 147.3 404.7L190.6 361.4C196.6 355.4 204.8 352 213.3 352V352zM416 448V384H213.3L181.3 416L213.3 448H416zM147.3 244.7L190.6 201.4C196.6 195.4 204.8 192 213.3 192H480C497.7 192 512 206.3 512 224V288C512 305.7 497.7 320 480 320H213.3C204.8 320 196.6 316.6 190.6 310.6L147.3 267.3C141.1 261.1 141.1 250.9 147.3 244.7V244.7zM181.3 256L213.3 288H480V224H213.3L181.3 256z"/></svg>
